X: 5668
T: By Heck
R: barndance
M: 4/4
K: Dmajor
|:A3A2d ef|ed ef ed B2|A3A2d ef|ed ef e2<a2|
A3A2d ef|ed ef ed B2|Ad ef af ed|1 (3fgf e2 d4:|2 (3fgf (3efe d4||
|:B3B2d ef|ed ef ed B2|B3B2d ef|ed ef e2<b2|
B3B2d ef|ed ef ed B2|Ad ef af ed|1 (3fgf (3efe d4:|2 (3fgf (3efe d2 f2||
|:g2 g2 gg g2<g2|gf gf eg|f2 d2 c2 B2|Ae fb a2<f2|
B4> B4|c4> A4|1 d2 (3ABc d2 (3de^e|fe fg af ed:|2 d14|(3def||
|:g2 g2 gf ed|ga ge d2 (3def|g2 g2 gf ed|ed ^e2<f2 (3d=ef|
g2 g2 gf ed|ga ge d2 (3B=c^c|d2 d2 de d=c|1 BG AF G2 (3def:|2 BG AF G7/^A/||
|:Bd dB2< d2f|ga bg ag2^A|Bd dB2< d2f|ga bg a2 g^A|
Bd dB2< d2f|ga bg ag2c|d2 d2 de d=c|1 BG AF G7/^A/:|2 BG AF G||

